packages/gestalt/src/icons/mute.svg

<svg xmlns="http://www.w3.org/2000/svg" width="24" height="24"><path d="M5 7.94v.02L12 1v22l-7-6.09v.03H2c-1.1 0-2-.9-2-2v-5a2 2 0 0 1 2-2h3Zm18.63 6.18c.49.48.49 1.27 0 1.76-.48.49-1.28.49-1.76 0l-2.12-2.11-2.12 2.11c-.48.49-1.28.49-1.76 0-.49-.49-.49-1.28 0-1.76L17.98 12l-2.11-2.12c-.49-.49-.49-1.28 0-1.76.48-.49 1.28-.49 1.76 0l2.12 2.11 2.11-2.11a1.25 1.25 0 0 1 1.77 0c.49.48.49 1.28 0 1.76L21.52 12l2.11 2.12Z"/></svg>

<svg height="24" width="24" xmlns="http://www.w3.org/2000/svg"><path d="M5.00,7.94 L5.00,7.96 L12.00,1.00 L12.00,23.00 L5.00,16.91 L5.00,16.94 L2.00,16.94 C0.90,16.94 0.00,16.04 0.00,14.94 L0.00,9.94 C0.00,8.83 0.90,7.94 2.00,7.94 L5.00,7.94 Z M23.63,14.12 C24.12,14.60 24.12,15.39 23.63,15.88 C23.15,16.37 22.35,16.37 21.87,15.88 L19.75,13.77 L17.63,15.88 C17.15,16.37 16.35,16.37 15.87,15.88 C15.38,15.39 15.38,14.60 15.87,14.12 L17.98,12.00 L15.87,9.88 C15.38,9.39 15.38,8.60 15.87,8.12 C16.35,7.63 17.15,7.63 17.63,8.12 L19.75,10.23 L21.86,8.12 C22.35,7.63 23.15,7.63 23.63,8.12 C24.12,8.60 24.12,9.40 23.63,9.88 L21.52,12.00 L23.63,14.12 Z"/></svg>
